!!!COM: Haydn, Franz Joseph
!!!OPR: String Quartet in D Major
!!!ONM: Opus 71, No. 2
!!!OTL: Affettuoso 
!!!OMV: 1
!!!SCT: H III:70
!!!SCA: Thematisch-bibliographisches Werkevererzeichnis (A. van Hoboken)
!!!YOR: Trautwein Edition
!!!EED: Frances Bennion
!!!ENC: Frances Bennion
!!!CDT: 1732/3/31/-1809/5/31/
!!!OCY: Österreich
!!!YEC: Copyright (c) 1994, 2000 Center for Computer Assisted Research in the Humanities
!!!YEM: Rights to all derivative editions reserved.
!!!YEM: Refer to licensing agreement for further details.
!!!YEN: United States of America
**kern	**kern	**kern	**kern
*k[f#c#]	*k[f#c#]	*k[f#c#]	*k[f#c#]
*D:	*D:	*D:	*D:
*clefF	*clefF	*clefC3	*clefF4
*M4/4	*M4/4	*M4/4	*M4/4
*tb16	*tb16	*tb16	*tb16
=1	=1	=1	=1
8dd 8f#	8f# 8A	8D 8f# 8A	8DD
8d	8d	4A	8F#
8e	8c#	.	8E
8f#	8d	8A	8D
2g	2e	2A	2C#
=2	=2	=2	=2
8A 8ee 8g	8A 8g	8c# 8e	8AA
8e	8c#	4A	8G
8f#	8d	.	8F#
8g	8e 8c#	8G	8E
4.a	4.A 4.f#	8F#	8D
.	.	4d	8AA
.	.	.	4FF#
8dd	[8a	[8D	.
=3	=3	=3	=3
8cc#	8a]	4.D]	8GG
4b	4g	.	8BB
.	.	.	4D
4a	4f#	8F#	.
.	.	8B	4.r
4g	4e	8c#	.
.	.	8d	.
[8f#	16d	[8A	8DD
.	16c#	.	.
=4	=4	=4	=4
16f#]	2B	16A]	2GG
16e	.	16G	.
16d#	.	16F#	.
16e	.	16G	.
16f#	.	16D#	.
16g	.	16E	.
16a	.	16F#	.
16b	.	16G	.
4d	4A	4F#	4.AA
8e	8c#	8G	.
8r	8r	8r	8D
=5	=5	=5	=5
2r	4.r	8r	2..DD
.	.	8f#	.
.	.	[2F#	.
.	8a	.	.
8r	4.A	.	.
8dd	.	.	.
8d	.	8F#]	.
8ff#	8a	8d	8D
=6	=6	=6	=6
4ff#	2b	8d	2.G
.	.	8d#	.
8ee	.	2e	.
8dd	.	.	.
4cc#	4.a	.	.
8dd	.	8d	8F#
8aa	8a	8A	8F#
=7	=7	=7	=7
4a 4aa	4.cc#	4.G	4.E
8gg	.	.	.
8ff#	8dd	8A	8D
4a 4aa	4.cc#	4.G	4.E
8gg	.	.	.
8ff#	8dd	8A	8D
=8	=8	=8	=8
8ee	8cc#	8A	8G
8dd	8dd	8a	8F#
8gg	8cc#	8a	8E
8ff#	8dd	8a	8D
8ee	4cc#	4a	4A
8aa	.	.	.
8a	4r	4r	8r
8r	.	.	8D
=9	=9	=9	=9
2r	4.r	8r	2..DD
.	.	8f#	.
.	.	[2F#	.
.	8a	.	.
8r	4.A	.	.
8dd	.	.	.
8d	.	8F#]	.
8ff#	8a	8d	8D
=10	=10	=10	=10
4ff#	4.b	8d	4.G
.	.	8d#	.
8ee	.	8e	.
8dd#	8cc	8f#	8A
4dd#	4cc	4f#	4A
8ee	8b	8g	8G
8bb	8g	8e	8r
=11	=11	=11	=11
8ddd	2f#	2d#	1r
8ccc	.	.	.
8bb	.	.	.
8aa	.	.	.
16aa	8g	8e	.
16gg	.	.	.
16bb	8e	8c#	.
16aa	.	.	.
16gg	8f#	8d	.
16ff#	.	.	.
16aa	8b	8G	.
16gg	.	.	.
=12	=12	=12	=12
16gg	8a	2A	2..r
16ff#	.	.	.
16ff#	8g	.	.
16ee	.	.	.
16ee	8f#	.	.
16dd	.	.	.
16dd	8e	.	.
16cc#	.	.	.
8dd	8d	8d	.
16c#	4r	4r	.
16d	.	.	.
16c#	.	.	.
16d	.	.	.
16f#	[8A	8F#	8D
16d	.	.	.
=13	=13	=13	=13
8c#	4A]	4G	4E
16f#	.	.	.
16g	.	.	.
16f#	8r	8r	8r
16g	.	.	.
16b	8e	8A	8c#
16g	.	.	.
8f#	4f#	4d	4d
16cc#	.	.	.
16dd	.	.	.
16cc#	8r	8r	4r
16dd	.	.	.
16ff#	8a	8f#	.
16dd	.	.	.
=14	=14	=14	=14
8cc#	4g	4e	1r
16ff#	.	.	.
16gg	.	.	.
16ff#	8r	8r	.
16gg	.	.	.
16bb	8e	8c#	.
16gg	.	.	.
8ff#	4f#	4d	.
16ccc#	.	.	.
16ddd	.	.	.
16ccc#	8r	8r	.
16ddd	.	.	.
16bb	16g	8D	.
16gg	16b	.	.
=15	=15	=15	=15
16ff#	16a	4d	4.r
16dd	16f#	.	.
2..r	16cc#	.	.
.	16dd	.	.
.	16cc#	8r	.
.	16dd	.	.
.	16b	16G	8DD
.	16g	16B	.
.	16f#	16A	4D
.	16d	16F#	.
.	8dd	16c#	.
.	.	16d	.
.	8r	16c#	8r
.	.	16d	.
.	8d	16B	16G
.	.	16G	16B
=16	=16	=16	=16
8r	8dd	16F#	16A
.	.	16D	16F#
16ccc#	16cc#	16c#	16C#
16ddd	16dd	16d	16D
16ccc#	16cc#	16c#	16C#
16ddd	16dd	16d	16D
16bb	16b	16B	16BB
16gg	16g	16G	16GG
16ff#	16f#	16F#	[2DD
16dd	16d	16D	.
16gg	8dd	16B	.
16dd	.	16d	.
16aa	8r	16A	.
16dd	.	16d	.
16bb	8dd	16G	.
16dd	.	16d	.
=17	=17	=17	=17
16aa	8r	16F#	8DD]
16dd	.	16d	.
16bb	8dd	16G	8DD
16dd	.	16d	.
16aa	8r	16F#	8DD
16dd	.	16d	.
16bb	8dd	16G	8DD
16dd	.	16d	.
8aa	8r	8F#	8DD
8dd	8a	8A	8F#
8gg	8cc#	8A	8E
8ff#	8dd	8A	8D
=18	=18	=18	=18
8ee	4cc#	4A	4A
16gg#	.	.	.
16aa	.	.	.
16gg#	4r	4r	4r
16aa	.	.	.
16bb	.	.	.
16aa	.	.	.
16gg	8ee	8a	8c#
16ee	.	.	.
16gg	8r	8r	8r
16ee	.	.	.
16ff#	8dd	8a	8d
16dd	.	.	.
16ff#	8r	8r	8r
16dd	.	.	.
=19	=19	=19	=19
8ee	8cc#	4a	4A
4.r	16gg#	.	.
.	16aa	.	.
.	16gg#	4r	4r
.	16aa	.	.
.	16bb	.	.
.	16aa	.	.
8ee 8ccc#	16gg	16A	8AA
.	16ee	16e	.
8r	16gg	16A	8r
.	16ee	16e	.
8ddd 8ff#	16ff#	16A	8AA
.	16dd	16f#	.
8r	16ff#	16A	8r
.	16dd	16f#	.
=20	=20	=20	=20
8ee 8ccc#	8a 8ee	8a	8AA
8ff# 8ddd	8ff# 8a	16d	8AA
.	.	16f#	.
8ccc# 8ee	8a 8ee	8a	8AA
8ff# 8ddd	8ff# 8a	16d	8AA
.	.	16f#	.
4ccc# 4ee	4ee 4a	4a	4AA
8r	4r	4r	4r
8aa	.	.	.
=21	=21	=21	=21
2..a	8r	4.r	2r
.	8ff#	.	.
.	[2f#	.	.
.	.	8cc#	.
.	.	4.c#	8r
.	.	.	8F#
.	8f#]	.	8FF#
8ddd	8b	8g#	8EE#
=22	=22	=22	=22
8dd	1g# 1b	2..E#	8E#
8bb	.	.	8GG#
8b	.	.	8G#
8gg#	.	.	8BB
8g#	.	.	8B
8ee#	.	.	8C#
8e#	.	.	8c#
8b	.	8c#	8E#
=23	=23	=23	=23
8a	4.a 4.f#	2F#	8F#
8ccc#	.	.	8AA
8cc#	.	.	8A
8aa	8cc# 8f#	.	8FF#
8a	2cc# 2f#	4.A	8F#
8ff#	.	.	8AA
8f#	.	.	8A
8ee	.	8A#	8A#
=24	=24	=24	=24
16dd#	4b 4f#	4B	4B
16ee	.	.	.
16ff#	.	.	.
16gg#	.	.	.
16aa	8r	8r	8r
16gg#	.	.	.
16ff#	8A	8e	8c
16ee	.	.	.
16dd#	4a	4f#	4B
16ee	.	.	.
16ff#	.	.	.
16gg#	.	.	.
16aa	8r	8r	8r
16gg#	.	.	.
16ff#	8A	8e	8c
16ee	.	.	.
=25	=25	=25	=25
16dd#	1a	1f#	1B
16ee	.	.	.
16ff#	.	.	.
16gg#	.	.	.
16aa	.	.	.
16gg#	.	.	.
16ff#	.	.	.
16ee	.	.	.
16dd#	.	.	.
16ee	.	.	.
16ff#	.	.	.
16ee	.	.	.
16dd#	.	.	.
16cc#	.	.	.
16b	.	.	.
16a	.	.	.
=26	=26	=26	=26
16g#	4g#	4e	4E
16gg#	.	.	.
16bb	.	.	.
16aa	.	.	.
16gg#	8r	8r	8r
16ff#	.	.	.
16ee	8f#	8c	8A
16dd#	.	.	.
16ee	4e	4B	4G#
16gg#	.	.	.
16bb	.	.	.
16aa	.	.	.
16gg#	8r	8r	8r
16ff#	.	.	.
16ee	8f#	8c	8A
16dd#	.	.	.
=27	=27	=27	=27
16ee	2e	1B	1G#
16bb	.	.	.
16ddd	.	.	.
16ccc#	.	.	.
16bb	.	.	.
16aa	.	.	.
16gg#	.	.	.
16ff#	.	.	.
16ee	2dd 2e	.	.
16gg#	.	.	.
16bb	.	.	.
16aa	.	.	.
16gg#	.	.	.
16ff#	.	.	.
16ee	.	.	.
16dd	.	.	.
=28	=28	=28	=28
8cc#	4cc# 4e	4A	4A
8ff#	.	.	.
4.ee	8r	8r	8r
.	8a	8e	8c#
.	4.g#	4.d	4B
8ff#	.	.	.
[4ee	.	.	8r
.	8a	8e	8c#
=29	=29	=29	=29
16ee]	[4g#	[4d	[4B
16ff#	.	.	.
16ee	.	.	.
16ff#	.	.	.
[4ee	16g#]	16d]	16B]
.	16a	16e	16c#
.	16g#	16d	16B
.	16a	16e	16c#
16ee]	[4g#	[4d	[4B
16ff#	.	.	.
16ee	.	.	.
16ff#	.	.	.
[4ee	16g#]	16d]	16B]
.	16a	16e	16c#
.	16g#	16d	16B
.	16a	16e	16c#
=30	=30	=30	=30
16ee]	8g#	8d	8B
16ff#	.	.	.
16ee	8a	8e	8c#
16ff#	.	.	.
16ee	8g#	8d	8B
16ff#	.	.	.
16ee	8a	8e	8c#
16ff#	.	.	.
16ee	4.g#	4.d	4.B
16ff#	.	.	.
16gg#	.	.	.
16aa	.	.	.
16bb	.	.	.
16ccc#	.	.	.
16ddd	8bb	16B	8G#
16bb	.	16e	.
=31	=31	=31	=31
16ccc#	8aa	4e	4A
16ddd	.	.	.
16eee	8a	.	.
16ccc#	.	.	.
16aa	8ff#	2r	2.r
16bb	.	.	.
16ccc#	8f#	.	.
16aa	.	.	.
16ff#	8dd	.	.
16gg#	.	.	.
16aa	8d	.	.
16ff#	.	.	.
16dd	4r	8g#	.
16ee	.	.	.
16ff#	.	8G#	.
16dd	.	.	.
=32	=32	=32	=32
16cc#	1r	8a	2.r
16dd	.	.	.
16ee	.	8A	.
16cc#	.	.	.
16a	.	8f#	.
16b	.	.	.
16cc#	.	8F#	.
16a	.	.	.
16f#	.	8d	.
16g#	.	.	.
16a	.	8D	.
16f#	.	.	.
16d	.	4r	8G#
16f#	.	.	.
16e	.	.	8GG#
16d	.	.	.
=33	=33	=33	=33
16c#	4r	2r	8AA
16d	.	.	.
16c#	.	.	8A
16B	.	.	.
16A	16r	.	2.r
16f#	16d	.	.
16e	16c#	.	.
16d	16B	.	.
16c#	16A	16r	.
16a	16e	16c#	.
16g#	16d	16B	.
16f#	16c#	16A	.
16e	16B	16G#	.
16dd	16a	16f#	.
16cc#	16g#	16e	.
16b	16f#	16d	.
=34	=34	=34	=34
16a	16e	16c#	2r
16ff#	16dd	16e	.
16ee	16cc#	16f#	.
16dd	16b	16g#	.
16cc#	16a	16a	.
16ff#	16dd	16e	.
16ee	16cc#	16f#	.
16dd	16b	16g#	.
16cc#	16a	16a	16r
16aa	16ee	16cc#	16A
16gg#	16dd	16b	16B
16ff#	16cc#	16a	16c#
16ee	16b	16g#	16d
16aa	16ee	16cc#	16A
16gg#	16dd	16b	16B
16ff#	16cc#	16a	16c#
=35	=35	=35	=35
1ee	2b	2g#	2d
.	2a#	2g	2c#
=36	=36	=36	=36
8.dd	8.b	8.f#	8.d
16ee	16cc#	16e	16c#
8ff#	8dd	8d	8B
8dd	8b	8f#	8d
8cc#	8a	8e	8e
8r	8r	8r	8r
8b	8g#	8d	8E
8r	8r	8r	8r
=37	=37	=37	=37
1ff	1b	2g#	1d
.	.	[2g	.
=38	=38	=38	=38
4ee	4cc	4g]	4c
4dd	4b	4f	4d
4cc	4a	4f#	4d#
4b	4g#	4g#	4e
=39	=39	=39	=39
8cc#	8a	8e	8A
8cc#	8a	8e	8A
8dd	8b	8f#	8D
16cc#	8b	8f#	8D
16dd	.	.	.
8b	8g#	8e	8E
8b	8g#	8e	8E
4ee	4r	4r	4r
=40	=40	=40	=40
8cc#	8a	8e	8A
8cc#	8a	8e	8A
8dd	8b	8f#	8D
16cc#	8b	8f#	8D
16dd	.	.	.
8b	8g#	8e	8E
8b	8g#	8e	8E
4e	4r	4r	4r
=41	=41	=41	=41
8a	8A	8e	8c#
8a	8A	8e	8c#
8aa	8e	8A	8C#
16gg#	8e	8A	8C#
16aa	.	.	.
8ff#	8f#	8A	8D
8ff#	8f#	8A	8D
4ddd	8r	8r	8r
.	8g#	8e	8BB
=42	=42	=42	=42
16ccc#	16a	8e	8AA
16eee	16cc#	.	.
16ccc#	16ee	8e	8AA
16aa	16cc#	.	.
16bb	16dd	8d	8E
16ddd	16b	.	.
16bb	16g#	8d	8E
16gg#	16b	.	.
4aa	16a	16c#	4AA
.	16c#	16A	.
.	16d	16B	.
.	16e	16c#	.
4r	16f#	16d	4r
.	16g#	16e	.
.	16a	16f#	.
.	16b	16g#	.
=43	=43	=43	=43
8r	8cc#	8a	8A
8eee	8cc#	8a	8r
8r	8dd	8r	8D
8fff#	16cc#	16d	8r
.	16dd	16b	.
8r	8b	8g#	4E
16ddd	8b	8g#	.
16bb	.	.	.
8gg#	4ee	8r	4r
8ee	.	8ee	.
=44	=44	=44	=44
8r	8cc#	8a	8A
8eee	8cc#	8a	8r
8r	8dd	8r	8D
8fff#	16cc#	16d	8r
.	16dd	16b	.
8r	8b	8g#	4E
16ddd	8b	8g#	.
16bb	.	.	.
8gg#	4e	8r	4r
8ee	.	8ee	.
=45	=45	=45	=45
8r	8r	8a	8c#
16eee	8a	8a	8r
16ccc#	.	.	.
8aa	8r	8r	8C#
16gg#	8ee	8a	8r
16aa	.	.	.
8ff#	8r	8r	8D
8ff#	8ff#	8a	8r
4ddd	8r	8r	8BB
.	8gg#	8e	8r
=46	=46	=46	=46
16ccc#	4aa	16ee	8AA
16eee	.	16cc#	.
16ccc#	.	16ee	8r
16aa	.	16cc#	.
16bb	8r	16dd	8E
16ddd	.	16b	.
16bb	8ee	16g#	8r
16gg#	.	16b	.
[2aa	16aa	4a	4AA
.	16ccc#	.	.
.	16aa	.	.
.	16ee	.	.
.	16ff#	4r	4r
.	16aa	.	.
.	16ff#	.	.
.	16dd	.	.
=47	=47	=47	=47
1aa_	16ee	2r	1r
.	16aa	.	.
.	16ee	.	.
.	16cc#	.	.
.	16dd	.	.
.	16ff#	.	.
.	16dd	.	.
.	16b	.	.
.	16cc#	16a	.
.	16ee	16cc#	.
.	16cc#	16a	.
.	16a	16e	.
.	16dd	16f#	.
.	16ff#	16a	.
.	16dd	16f#	.
.	16b	16d	.
=48	=48	=48	=48
1aa]	16cc#	16e	2r
.	16ee	16a	.
.	16cc#	16e	.
.	16a	16c#	.
.	16b	16d	.
.	16dd	16f#	.
.	16b	16d	.
.	16g#	16B	.
.	2a	16c#	16A
.	.	16e	16c#
.	.	16c#	16A
.	.	16A	16E
.	.	16d	16F#
.	.	16f#	16A
.	.	16d	16F#
.	.	16B	16D
=49	=49	=49	=49
8eee	8ccc#	8A	16C#
.	.	.	16E
8r	8r	8r	16A
.	.	.	16c#
8ddd	8bb	8f#	16D
.	.	.	16F#
8r	8r	8r	16B
.	.	.	16d
8ccc#	8aa	8e	8E
8r	8r	8r	8r
8bb	8gg#	8d	8E
16r	8r	8r	8r
16aa	.	.	.
=50	=50	=50	=50
4.a	8r	8r	8r
.	8a	8E	8C#
.	4A	4e	4c#
8aa	.	.	.
4.a	8r	8r	8r
.	8a	8F#	8D
.	4A	4f#	4d
8aa	.	.	.
=51	=51	=51	=51
4.a	8r	8r	8r
.	8a	8G	8E
.	2.A	2.g	2.e
8aa	.	.	.
8a	.	.	.
8aa	.	.	.
8a	.	.	.
8aa	.	.	.
=52	=52	=52	=52
8a	1r	1r	1r
8gg	.	.	.
8g	.	.	.
8ff#	.	.	.
8f#	.	.	.
8ee	.	.	.
8e	.	.	.
8dd	.	.	.
=53	=53	=53	=53
8d	4A	4F#	2..D
8cc	.	.	.
8d	4B	4G	.
8b	.	.	.
8d	4c	4A	.
8a	.	.	.
8g	4B	4B	.
8r	.	.	8d
=54	=54	=54	=54
4a	4f#	2.D	8D
.	.	.	8c
4b	4g	.	8D
.	.	.	8B
4cc	8a	.	8D
.	8f#	.	8A
4b	8g	4G	8G
.	8b	.	8r
=55	=55	=55	=55
2..r	8B	4f#	4D#
.	8a	.	.
.	8B	4g	4E
.	8g	.	.
.	8B	4d#	4A
.	8f#	.	.
.	8e	4e	4G
8b	8r	.	.
=56	=56	=56	=56
8dd#	4a	4f#	2.BB
8b	.	.	.
8ee	4g	4e	.
8b	.	.	.
8aa	4dd#	4f#	.
8b	.	.	.
8gg	8ee	8e	8E
8aa	8ff#	8B	8D#
=57	=57	=57	=57
8g	8ee	4e	2.E
8gg	8ee	.	.
8f#	8dd	2.r	.
8ff#	8dd	.	.
8e	8cc#	.	.
8ee	8cc#	.	.
8d	8b	.	4E#
8dd	8b	.	.
=58	=58	=58	=58
4cc#	4a#	2.r	8F#
.	.	.	8F#
4a#	2ff#	.	8F#
.	.	.	16E
.	.	.	16F#
4b	.	.	8G
.	.	.	8g
4bb	[4ee	4b	8g
.	.	.	16f#
.	.	.	16g
=59	=59	=59	=59
8aa	4ee]	4cc	2f#
8aa	.	.	.
8aa	4dd#	8b	.
16gg#	.	8b	.
16aa	.	.	.
2gg#	8dd	4b	2e
.	8dd	.	.
.	8dd	8b	.
.	16cc#	16a	.
.	16dd	16b	.
=60	=60	=60	=60
8gg	2.cc#	8ee	2A
8gg	.	8e	.
8gg	.	8e	.
16ff#	.	16d	.
16gg	.	16e	.
2ff#	.	8d	4d
.	.	8d	.
.	[4b	8g	4r
.	.	16f#	.
.	.	16g	.
=61	=61	=61	=61
2ee	4b]	8c#	1r
.	.	8c#	.
.	4a#	8f#	.
.	.	16e	.
.	.	16f#	.
8dd	8b	4B	.
8dd	8b	.	.
8dd	8b	4E#	.
16cc#	16a#	.	.
16b	16b	.	.
=62	=62	=62	=62
8a#	4a#	4F#	4F#
16e#	.	.	.
16f#	.	.	.
16e#	4r	4r	4r
16f#	.	.	.
16e#	.	.	.
16f#	.	.	.
8a#	4f#	4c#	4E
16g	.	.	.
16f#	.	.	.
16g	4r	4r	4r
16f#	.	.	.
16g	.	.	.
16f#	.	.	.
=63	=63	=63	=63
8b	4f#	4B	4D
16e#	.	.	.
16f#	.	.	.
16e#	4r	4r	4r
16f#	.	.	.
16e#	.	.	.
16f#	.	.	.
8cc#	4f#	4e	4AA#
16g	.	.	.
16f#	.	.	.
16g	4r	4r	4r
16f#	.	.	.
16g	.	.	.
16f#	.	.	.
=64	=64	=64	=64
8dd	4f#	4d	4BB
16a#	.	.	.
16b	.	.	.
16a#	8r	8r	2.r
16b	.	.	.
16dd	8f#	8d	.
16b	.	.	.
8a#	4e	4c#	.
16dd#	.	.	.
16ee	.	.	.
16dd#	8r	8r	.
16ee	.	.	.
16gg	8cc#	8a#	.
16ee	.	.	.
=65	=65	=65	=65
8dd	8dd	8b	8r
16aa#	16a#	16a#	16A#
16bb	16b	16b	16B
16aa#	16a#	16a#	16A#
16bb	16b	16b	16B
16ddd	16dd	16dd	16d
16bb	16b	16b	16B
8gg	8g	8g	8G
16bb	16b	16b	16B
16gg	16g	16g	16G
8ee	8e	8e	8E
16gg	16g	16g	16G
16ee	16e	16e	16E
=66	=66	=66	=66
8cc#	8c#	8c#	8C#
8r	8r	8r	8r
8gg	8ee	8c#	8E
8r	8r	8r	8r
8ff#	8dd	8f#	8F#
8r	8r	8r	8r
8a#	8cc#	8e	8FF#
8r	8r	8r	8r
=67	=67	=67	=67
8b	8b	8d	8GG
16a#	16a#	16a#	16A#
16b	16b	16b	16B
16a#	16a#	16a#	16A#
16b	16b	16b	16B
16dd	16dd	16dd	16d
16b	16b	16b	16B
8g	8g	8g	8G
16b	16b	16b	16B
16g	16g	16g	16G
8e	8e	8e	8E
16g	16g	16g	16G
16e	16e	16e	16E
=68	=68	=68	=68
8c#	8c#	8c#	8C#
16A	16A	16A	16AA
16B	16B	16B	16BB
16c#	16c#	16c#	16C#
16d	16d	16d	16D
16e	16e	16e	16E
16f#	16f#	16d	16F#
8g	8e	8c#	8AA 8G
16a	16g	16c#	4.r
16b	16f#	16d	.
16cc#	16e	16e	.
16dd	16d	16f#	.
16ee	16c#	16e	.
16ff#	16B	16d	.
=69	=69	=69	=69
8gg	8A	8c#	8AA
16b	16g	16C#	16AA
16a	16f#	16D	16BB
16g	16e	16E	16C#
16f#	16d	16F#	16D
16e	16c#	16G	16E
16d	16B	16F#	16F#
8c#	8A	8G	8G
16cc#	16a	16e	16g
16dd	16b	16f#	16f#
16ee	16cc#	16g	16e
16ff#	16dd	16f#	16d
16gg	16ee	16e	16c#
16aa	16ff#	16d	16B
=70	=70	=70	=70
8bb	4gg	4c#	4A
8b	.	.	.
8gg	2.r	2.r	2r
8e	.	.	.
8ee	.	.	.
8c#	.	.	.
8cc#	.	.	8r
8G	.	.	8D
=71	=71	=71	=71
2r	4.r	8r	2..DD
.	.	8f#	.
.	.	[2F#	.
.	8a	.	.
8r	4.A	.	.
8dd	.	.	.
8d	.	8F#]	.
8ff#	8a	8d	8D
=72	=72	=72	=72
4ff#	2b	8d	2.G
.	.	8d#	.
8ee	.	2e	.
8dd	.	.	.
4cc#	4.a	.	.
8dd	.	8d	8F#
8aa	8a	8A	8F#
=73	=73	=73	=73
4aa 4a	4.cc#	4.G	4.E
8gg	.	.	.
8ff#	8dd	8A	8D
4aa 4a	4.cc#	4.G	4.E
8gg	.	.	.
8ff#	8dd	8A	8D
=74	=74	=74	=74
8ee	8cc#	8A	8G
8dd	8dd	8a	8F#
8gg	8cc#	8a	8E
8ff#	8dd	8a	8D
8ee	4cc#	4a	4A
8aa	.	.	.
8a	4r	4r	8r
8r	.	.	8DD
=75	=75	=75	=75
2r	4.r	8r	2..D
.	.	8F	.
.	.	2.f	.
.	8B-	.	.
8r	2b-	.	.
8d	.	.	.
4dd	.	.	.
.	.	.	8EE
=76	=76	=76	=76
2r	4.r	8r	2..E
.	.	8c#	.
.	.	2.cc#	.
.	8g	.	.
8r	2gg	.	.
8b-	.	.	.
4bb-	.	.	.
.	.	.	8FF#
=77	=77	=77	=77
2r	4.r	8r	2..F#
.	.	8e-	.
.	.	2.ee-	.
.	8a	.	.
8r	2aa	.	.
8cc	.	.	.
4ccc	.	.	.
.	.	.	8GG
=78	=78	=78	=78
2r	4.r	8r	[1G
.	.	8B-	.
.	.	[2.b-	.
.	8d	.	.
8r	[2dd	.	.
8g	.	.	.
8gg	.	.	.
8b-	.	.	.
=79	=79	=79	=79
4.bb-	8dd]	8b-]	8G]
.	4gg	8b-	8GG
.	.	[2B-	[2G
8aa	8ff	.	.
8gg	8ee	.	.
8ff	8dd	.	.
8ee	8cc#	8B-]	8G]
8dd	8dd	8B	8G#
=80	=80	=80	=80
8cc#	8a	4.c#	4.A
8dd	8b	.	.
4.ee	4.cc#	.	.
.	.	8d	8B
.	.	4.e	4.c#
8ff#	8dd	.	.
[4gg	[4ee	.	.
.	.	8f#	8d
=81	=81	=81	=81
8gg]	8ee]	[2g	[2e
8ff#	8dd	.	.
8ee	8cc#	.	.
8dd	8b	.	.
8cc#	8a	8g]	8e]
8bb	8gg	8c#	8A
8aa	8ff#	8d	8B
8gg	8ee	8e	8c#
=82	=82	=82	=82
8ff#	4dd	4f#	4d
8bb	.	.	.
4.aa	8r	8r	8r
.	8dd	8a	8f#
.	4.cc#	4.g	4.e
8bb	.	.	.
[4aa	.	.	.
.	8dd	8a	8f#
=83	=83	=83	=83
16aa]	[4cc#	[4g	[4e
16bb	.	.	.
16aa	.	.	.
16bb	.	.	.
[4aa	16cc#]	16g]	16e]
.	16dd	16a	16f#
.	16cc#	16g	16e
.	16dd	16a	16f#
16aa]	[4cc#	[4g	[4e
16bb	.	.	.
16aa	.	.	.
16bb	.	.	.
[4aa	16cc#]	16g]	16e]
.	16dd	16a	16f#
.	16cc#	16g	16e
.	16dd	16a	16f#
=84	=84	=84	=84
16aa]	8cc#	8g	8e
16bb	.	.	.
16aa	8dd	8a	8f#
16bb	.	.	.
16aa	8cc#	8g	8e
16bb	.	.	.
16aa	8dd	8a	8f#
16bb	.	.	.
16aa	4.cc#	4.g	4.e
16bb	.	.	.
16ccc#	.	.	.
16ddd	.	.	.
16eee	.	.	.
16fff#	.	.	.
16ggg	8eee	16e	8c#
16eee	.	16a	.
=85	=85	=85	=85
16fff#	8ddd	4a	4d
16ggg	.	.	.
16aaa	8dd	.	.
16fff#	.	.	.
16ddd	8bb	2r	2.r
16eee	.	.	.
16fff#	8b	.	.
16ddd	.	.	.
16bb	8gg	.	.
16ccc#	.	.	.
16ddd	8g	.	.
16bb	.	.	.
16gg	4r	8cc#	.
16aa	.	.	.
16bb	.	8c#	.
16gg	.	.	.
=86	=86	=86	=86
16ff#	1r	8dd	2.r
16gg	.	.	.
16aa	.	8d	.
16ff#	.	.	.
16dd	.	8b	.
16ee	.	.	.
16ff#	.	8B	.
16dd	.	.	.
16b	.	8g	.
16cc#	.	.	.
16dd	.	8G	.
16b	.	.	.
16g	.	4r	8c#
16b	.	.	.
16a	.	.	8C#
16g	.	.	.
=87	=87	=87	=87
16f#	4r	2r	8D
16g	.	.	.
16f#	.	.	8d
16e	.	.	.
16d	16r	.	2.r
16b	16g	.	.
16a	16f#	.	.
16g	16e	.	.
16f#	16d	16r	.
16dd	16a	16f#	.
16cc#	16g	16e	.
16b	16f#	16d	.
16a	16e	16c#	.
16gg	16dd	16b	.
16ff#	16cc#	16a	.
16ee	16b	16g	.
=88	=88	=88	=88
16dd	16a	16f#	2r
16bb	16gg	16a	.
16aa	16ff#	16b	.
16gg	16ee	16cc#	.
16ff#	16dd	16dd	.
16bb	16gg	16a	.
16aa	16ff#	16b	.
16gg	16ee	16cc#	.
16ff#	16dd	16dd	16r
16ddd	16aa	16ff#	16d
16ccc#	16gg	16ee	16e
16bb	16ff#	16dd	16f#
16aa	16ee	16cc#	16g
16ddd	16aa	16ff#	16d
16ccc#	16gg	16ee	16e
16bb	16ff#	16dd	16f#
=89	=89	=89	=89
1aa	2ee	2cc#	2g
.	2dd#	2cc	2f#
=90	=90	=90	=90
8.gg	8.ee	8.b	8.g
16aa	16ff#	16a	16f#
8bb	8gg	8g	8e
8gg	8ee	8b	8g
8ff#	8dd	8a	8a
8r	8r	8r	8r
8ee	8cc#	8g	8A
8r	8r	8r	8r
=91	=91	=91	=91
1bb-	1ee	2cc#	1g
.	.	[2cc	.
=92	=92	=92	=92
4aa	4ff	4cc]	4f
4gg	4ee	4b-	4g
4ff	4dd	4b	4g#
4ee	4cc#	4cc#	4a
=93	=93	=93	=93
4dd	8ff#	8dd	2d
.	8ff#	8a	.
2.r	8gg	2b	.
.	16ff#	.	.
.	16gg	.	.
.	8ee	.	2c#
.	8ee	.	.
.	4aa	[4a	.
=94	=94	=94	=94
2r	8dd	4a]	2B
.	8dd	.	.
.	8ee	4g#	.
.	16dd	.	.
.	16ee	.	.
8aa	8cc#	8a	[2AA
8aa	8r	8r	.
8bb	8f#	8d#	.
16aa	8f#	8d#	.
16bb	.	.	.
=95	=95	=95	=95
8gg	8g	8e	1AA_
8gg	16f#	16d#	.
.	16g	16e	.
4eee	8e	8c#	.
.	8e	8c#	.
8ff#	4f#	4d	.
8ff#	.	.	.
8gg	8d	8B	.
16ff#	8d	8B	.
16gg	.	.	.
=96	=96	=96	=96
8ee	8e	8c#	1AA_
8ee	16d	16B	.
.	16e	16c#	.
4ccc#	8c#	8A	.
.	8c#	8A	.
8dd	4.d	2B	.
8dd	.	.	.
8ee	.	.	.
16dd	8g#	.	.
16ee	.	.	.
=97	=97	=97	=97
16cc#	2a	1c# 1e	1AA]
16dd	.	.	.
16ee	.	.	.
16ff#	.	.	.
16gg	.	.	.
16ff#	.	.	.
16ee	.	.	.
16dd	.	.	.
16cc#	2g	.	.
16dd	.	.	.
16ee	.	.	.
16dd	.	.	.
16cc#	.	.	.
16b	.	.	.
16a	.	.	.
16g	.	.	.
=98	=98	=98	=98
16f#	2f#	2f# 2A	1D
16d	.	.	.
16f#	.	.	.
16a	.	.	.
16cc	.	.	.
16dd	.	.	.
16ff#	.	.	.
16aa	.	.	.
16ccc	2a	2F# 2A	.
16aa	.	.	.
16ccc	.	.	.
16aa	.	.	.
16gg	.	.	.
16ff#	.	.	.
16aa	.	.	.
16a	.	.	.
=99	=99	=99	=99
16b	8b	2F# 2A	2D#
16bb	.	.	.
16cc	8a	.	.
16ccc	.	.	.
16b	8b	.	.
16bb	.	.	.
16a	8cc	.	.
16aa	.	.	.
16g	8b	4.G	2E
16gg	.	.	.
16f#	8a	.	.
16ff#	.	.	.
16e	8g	.	.
16ee	.	.	.
16d	8f#	8G#	.
16dd	.	.	.
=100	=100	=100	=100
16c#	8e	8A	1AA
16cc#	.	.	.
16B	8f#	8G	.
16b	.	.	.
16A	8g	8F#	.
16a	.	.	.
16G#	8g#	8E#	.
16g#	.	.	.
16A	8a	8F#	.
16a	.	.	.
16G#	8g#	8E#	.
16g#	.	.	.
16A	8a	8F#	.
16a	.	.	.
16G	8g	8E	.
16g	.	.	.
=101	=101	=101	=101
16f#	8f#	8D	8r
16a	.	.	.
16dd	8dd	8f#	8D
16a	.	.	.
16g	8r	8r	8r
16cc#	.	.	.
16ee	8cc#	8g	8E
16cc#	.	.	.
16a	8r	8r	8r
16dd	.	.	.
16ff#	8dd	8a	8F#
16dd	.	.	.
16b	8r	8r	8r
16ee	.	.	.
16gg	8ee	8b	8G
16ee	.	.	.
=102	=102	=102	=102
16ff#	4dd	4a	4A
16dd	.	.	.
16ee	.	.	.
16ff#	.	.	.
16gg	2.r	2.r	2.r
16aa	.	.	.
16bb	.	.	.
16ccc#	.	.	.
16ddd	.	.	.
16aa	.	.	.
16fff#	.	.	.
16ddd	.	.	.
8aaa	.	.	.
16r	.	.	.
16dd	.	.	.
=103	=103	=103	=103
1ee	1cc#	16g	1AA
.	.	16f#	.
.	.	16g	.
.	.	16f#	.
.	.	16g	.
.	.	16a	.
.	.	16b	.
.	.	16a	.
.	.	16g	.
.	.	16f#	.
.	.	16e	.
.	.	16d	.
.	.	16c#	.
.	.	16B	.
.	.	16A	.
.	.	16G	.
=104	=104	=104	=104
8ff#	8dd	8F#	8d
8ff#	8dd	8a	8d
8gg	8ee	8b	8G
16ff#	8ee	8b	8G
16gg	.	.	.
8ee	8cc#	8a	8A
8ee	8cc#	8a	8A
4aa	4r	4r	4r
=105	=105	=105	=105
8ff#	8dd	8a	8d
8ff#	8dd	8a	8d
8gg	8ee	8b	8G
16ff#	8ee	8b	8G
16gg	.	.	.
8ee	8cc#	8a	8A
8ee	8cc#	8a	8A
4a	4r	4r	4r
=106	=106	=106	=106
8dd	8d	8a	8FF#
8dd	8d	8a	8FF#
8ddd	8a	8d	8F#
16ccc#	8a	8d	8F#
16ddd	.	.	.
8bb	8b	8d	8G
8bb	8b	8d	8G
4ggg	8r	8r	8r
.	8cc#	8a	8E
=107	=107	=107	=107
16fff#	16dd	8a	8D
16aaa	16ff#	.	.
16fff#	16aa	8a	8D
16ddd	16ff#	.	.
16eee	16gg	8g	8A
16ggg	16ee	.	.
16eee	16cc#	8g	8A
16ccc#	16ee	.	.
4ddd	16dd	16f#	4D
.	16ff#	16dd	.
.	16ee	16cc#	.
.	16dd	16b	.
4r	16cc#	16a	4r
.	16b	16g	.
.	16a	16f#	.
.	16g	16e	.
=108	=108	=108	=108
8r	8f#	8d	8D
8aa	8f#	8d	8r
8r	8g	8r	8GG
8bb	16f#	16G	8r
.	16g	16e	.
8r	8e	8c#	4AA
16gg	8e	8c#	.
16ee	.	.	.
8cc#	4a	8r	4r
8a	.	8a	.
=109	=109	=109	=109
8r	8f#	8d	8D
8aa	8f#	8d	8r
8r	8g	8r	8GG
8bb	16f#	16G	8r
.	16g	16e	.
8r	8e	8c#	4AA
16gg	8e	8c#	.
16ee	.	.	.
8cc#	4A	8r	4r
8a	.	8a	.
=110	=110	=110	=110
8r	8r	8d	8FF#
16aa	8d	8d	8r
16ff#	.	.	.
8dd	8r	8r	8F#
16cc#	8a	8d	8r
16dd	.	.	.
8b	8r	8r	8G
8b	8b	8d	4r
4gg	8r	8r	.
.	8cc#	8a	8E
=111	=111	=111	=111
16ff#	4dd	16a	8D
16aa	.	16f#	.
16ff#	.	16a	8r
16dd	.	16f#	.
16ee	8r	16g	8AA
16gg	.	16e	.
16ee	8aa	16c#	8r
16cc#	.	16e	.
[2dd	16aa	4d	4D
.	16ddd	.	.
.	16aa	.	.
.	16ff#	.	.
.	16bb	4r	4r
.	16ddd	.	.
.	16bb	.	.
.	16gg	.	.
=112	=112	=112	=112
1dd_	16aa	2r	1r
.	16ddd	.	.
.	16aa	.	.
.	16ff#	.	.
.	16gg	.	.
.	16bb	.	.
.	16gg	.	.
.	16ee	.	.
.	16ff#	16dd	.
.	16aa	16ff#	.
.	16ff#	16dd	.
.	16dd	16a	.
.	16gg	16b	.
.	16bb	16dd	.
.	16gg	16b	.
.	16ee	16g	.
=113	=113	=113	=113
1dd]	16ff#	16a	2r
.	16aa	16dd	.
.	16ff#	16a	.
.	16dd	16f#	.
.	16ee	16g	.
.	16gg	16b	.
.	16ee	16g	.
.	16cc#	16e	.
.	2dd	16f#	16D
.	.	16a	16F#
.	.	16f#	16D
.	.	16d	16AA
.	.	16g	16BB
.	.	16b	16D
.	.	16g	16BB
.	.	16e	16GG
=114	=114	=114	=114
8aa	8ff#	8d	16FF#
.	.	.	16AA
8r	8r	8r	16D
.	.	.	16F#
8gg	8ee	8b	16GG
.	.	.	16BB
8r	8r	8r	16E
.	.	.	16G
8ff#	8dd	8a	8AA
8r	8r	8r	4r
8ee	8cc#	8g	.
8r	8r	8r	8BB
=115	=115	=115	=115
2r	4.r	8r	2..B
.	.	8d	.
.	.	2.dd	.
.	8f	.	.
8r	2ff	.	.
8g#	.	.	.
4gg#	.	.	.
.	.	.	8C#
=116	=116	=116	=116
2r	4.r	8r	2..c#
.	.	8e	.
.	.	[2ee	.
.	8g	.	.
8r	4.gg	.	.
8a	.	.	.
[4aa	.	8ee]	.
.	8G	8E	8C#
=117	=117	=117	=117
8aa]	4.g	4.e	4.c#
8b-	.	.	.
4.bb-	.	.	.
.	8G	8E	8C#
.	[2g	[2e	[2c#
8b	.	.	.
8bb	.	.	.
8b	.	.	.
=118	=118	=118	=118
2..bb	8g]	8e]	8c#]
.	8G	8E	8C#
.	8g	8e	8c#
.	8G	8E	8C#
.	[2g	[2e	[2c#
8aa	.	.	.
=119	=119	=119	=119
8gg	4g]	4e]	4c#]
8ff#	.	.	.
8ee	2.r	2.r	2.r
8dd	.	.	.
8cc#	.	.	.
8b	.	.	.
8a	.	.	.
8g	.	.	.
=120	=120	=120	=120
8f#	2r	4A	2D
8f#	.	.	.
8g	.	2B	.
16f#	.	.	.
16g	.	.	.
8e	8r	.	2C#
8e	16ee	.	.
.	16dd	.	.
4a	16cc#	[4A	.
.	16b	.	.
.	16a	.	.
.	16cc#	.	.
=121	=121	=121	=121
8d	4dd	4A]	2BB
8d	.	.	.
8e	4.r	2G	.
16d	.	.	.
16e	.	.	.
8c#	.	.	2AA
8c#	16cc#	.	.
.	16b	.	.
4f#	16a	[4F#	.
.	16g	.	.
.	16f#	.	.
.	16a	.	.
=122	=122	=122	=122
8B	4b	4F#]	2GG
8B	.	.	.
8c#	4.r	2E	.
16B	.	.	.
16c#	.	.	.
8A	.	.	2FF#
16B	16a	.	.
16c#	16g	.	.
8d	16f#	4D	.
.	16e	.	.
16e	16d	.	.
16f#	16f#	.	.
=123	=123	=123	=123
8g	8c#	8A	8EE
8r	8r	8r	8r
8f#	8d	8A	8DD
8r	8r	8r	8r
8e	8B	8G	8FF#
8r	8r	8r	4r
8c#	8G	8E	.
8r	8r	8r	8D
=124	=124	=124	=124
2r	4.r	8r	2..DD
.	.	8f#	.
.	.	[2F#	.
.	8a	.	.
8r	4.A	.	.
8dd	.	.	.
8d	.	8F#]	.
8f#	8f#	8F#	8FF#
=125	=125	=125	=125
8ff#	8ff#	8f#	8F#
8a	8a	8A	8AA
8aa	8aa	8a	8A
8dd	8dd	8d	8D
8ddd	8ddd	8dd	8d
4.r	4.r	4.r	4.r
==	==	==	==
*-	*-	*-	*-
!!!RWG1: This file contains only pitch and duration data.
!!!RWG2: Transposing instruments are not transposed.
!!!RWG3: Spines may have incompatible meters.
!!!RWG4: Durations of rests and tied notes may be interpreted.
!!!RWG: Key is interpreted using the Humdrum key tool.
!!!GTL: 6 Quartetti ("Apponyi")
!!!AFT: stage1
!!!END: 1997/04/15
!!format changes:
!!content changes:
!!public access: complete
!!!KEY: 2694823454
!!!EMD: Converted from MuseData to Humdrum Dec 16, 2000, by Andreas Kornstaedt using muse2kern.
